src/images/сlose.svg

<svg fill="none" height="40" viewBox="0 0 40 40" width="40" xmlns="http://www.w3.org/2000/svg"><g fill="#fff"><path d="m22.3566 20 8.8215 8.8215-2.357 2.357-10.4714-10.4714c-.3905-.3905-.3905-1.0237 0-1.4142l10.4714-10.47143 2.357 2.35703z"/><path d="m18.1307 20-8.82151 8.8215 2.35701 2.357 10.4714-10.4714c.3905-.3905.3905-1.0237 0-1.4142l-10.4714-10.47143-2.35701 2.35703z"/></g></svg>

<svg width="40" height="40" viewBox="0 0 40 40" fill="none" xmlns="http://www.w3.org/2000/svg">
<path d="M22.3566 20L31.1781 28.8215L28.8211 31.1785L18.3497 20.7071C17.9592 20.3166 17.9592 19.6834 18.3497 19.2929L28.8211 8.82147L31.1781 11.1785L22.3566 20Z" fill="white"/>
<path d="M18.1307 20L9.30919 28.8215L11.6662 31.1785L22.1376 20.7071C22.5281 20.3166 22.5281 19.6834 22.1376 19.2929L11.6662 8.82147L9.30919 11.1785L18.1307 20Z" fill="white"/>
</svg>
